X: 35882
T: Sandy Bell's
R: hornpipe
M: 4/4
K: Dmajor
|:FG^GA dAFA|(3FG^G Ad (3FG^G Ad|BAGB AG F2|(3EEE ed cBAG|
FG^GA dAFA|(3 FG^G Ad (3 FG^G Ad|BAGB AG FD|1 ED CE D2 A G:|2 ED CE D2 de||
|:f2 fg fedc|(3_ccc cd cB A2|BAGB AG F2|(3EEE ed cB A2|
[1 f2 fg fedc|(3_ccc cd cB A2|BAGB AG FD|ED CE D2 de:|
[2 FG^GA dAFA|(3FG^G Ad (3FG^G Ad|BAGB AG FD|ED CE D4||

